X:815
T:Paddy's Resource
A:Wyresdale, Lancashire
B:H.S.J. Jackson, 1823
L:1/8
M:6/8
O:England
Z:Richard Robinson 
%%TUNEURL: http://www.leeds.ac.uk/music/Info/RRTuneBk/gettune/00000e6c.html
%%ID:00000e6c
K:D
A |\
d>ed AFA | d>ed b2a | bag   fed  | eBB B2c |\
d>ed AFA | d>ed b2a | a>bc' d'ag | fdd d2 ::
g |\
Adf fdB   | Ace ecA  | Adf fed  | f>gf Te2d |\
dfa d'c'b | afd Te2d | fdB A>Bd | fdd  d2 ::
%page:94
